X:19024
T:Silverton Polka
R:Polka
C:Trad.
O:England
Z:Paul Hardy's Session Tunebook 2015 (see www.paulhardy.net). Creative Commons cc by-nc-sa licenced.
M:4/4
L:1/8
Q:1/4=140
K:G
Bc|"G"d2G2 G2fe|"D7"dedc "G"B2AB|"C"c2E2 E2AG|"D7"FGFE D2Bc|"G"d2G2 G2fe|"D7"dedc "G"B2AB|"C"c2E2 AGFE|"D7"D2G2 "G"G2:|
|:GE|"G"D2B2 BAGF|"C"E2c2 c4|"D7"D2c2 cBAG|"G"e2d2 B4|"G"D2B2 BAGF|"C"E2c2 c4|"D7"d2fe dcBA|A4 "G"G2:|
|:GE|"G"D2D2 DGFG|"C"E2E2 E2cA|"D7"F2F2 (3FED EF|"G"GFGA BGDB,|"G"D2D2 DGFG|"C"E2E2 E2cA|"D7"F2F2 (3FED EF|"G"G2G2 G2:|
|:z2|"G"B4-BDGA|B4-BDGA|B2fe dcBc|"D7"AGAB ADGA|"G"B4-BGAB|"C"c4-cBAG|"D7"F2fe dcBA|"G"G2B2 G2:|

